package/converter/svg/thin/circle-n.svg

<svg xmlns="http://www.w3.org/2000/svg" viewBox="0 0 512 512"><!-- Font Awesome Pro 6.0.0-alpha2 by @fontawesome - https://fontawesome.com License - https://fontawesome.com/license (Commercial License) --><path d="M360 128C355.578 128 352 131.578 352 136V354.547L158.047 130.766C155.891 128.25 152.328 127.375 149.203 128.5C146.078 129.672 144 132.656 144 136V376C144 380.422 147.578 384 152 384S160 380.422 160 376V157.453L353.953 381.234C355.5 383.031 357.719 384 360 384C360.938 384 361.891 383.828 362.797 383.5C365.922 382.328 368 379.344 368 376V136C368 131.578 364.422 128 360 128ZM256 16C123.451 16 16 123.451 16 256S123.451 496 256 496S496 388.549 496 256S388.549 16 256 16ZM256 480C132.486 480 32 379.514 32 256S132.486 32 256 32S480 132.486 480 256S379.514 480 256 480Z"/></svg>

<svg xmlns="http://www.w3.org/2000/svg" viewBox="0 0 512 512"><!--! Font Awesome Pro 6.6.0 by @fontawesome - https://fontawesome.com License - https://fontawesome.com/license (Commercial License) Copyright 2024 Fonticons, Inc. --><path d="M256 16a240 240 0 1 1 0 480 240 240 0 1 1 0-480zm0 496A256 256 0 1 0 256 0a256 256 0 1 0 0 512zM158 130.8c-2.2-2.5-5.7-3.4-8.8-2.3s-5.2 4.2-5.2 7.5l0 240c0 4.4 3.6 8 8 8s8-3.6 8-8l0-218.6L354 381.2c2.2 2.5 5.7 3.4 8.8 2.3s5.2-4.2 5.2-7.5l0-240c0-4.4-3.6-8-8-8s-8 3.6-8 8l0 218.6L158 130.8z"/></svg>
